packages/assets/static/images/icons/bold/presentation-chart--bold.svg

<svg width="24" height="24" viewBox="0 0 24 24" xmlns="http://www.w3.org/2000/svg">
<path d="M20.25 3.75H13.125V2.625C13.125 2.32663 13.0065 2.04048 12.7955 1.8295C12.5845 1.61853 12.2984 1.5 12 1.5C11.7016 1.5 11.4155 1.61853 11.2045 1.8295C10.9935 2.04048 10.875 2.32663 10.875 2.625V3.75H3.75C3.25272 3.75 2.77581 3.94754 2.42417 4.29917C2.07254 4.65081 1.875 5.12772 1.875 5.625V16.875C1.875 17.3723 2.07254 17.8492 2.42417 18.2008C2.77581 18.5525 3.25272 18.75 3.75 18.75H6.65625L5.11875 20.6719C4.93227 20.9049 4.84598 21.2024 4.87885 21.499C4.91173 21.7956 5.06109 22.067 5.29406 22.2534C5.52704 22.4399 5.82455 22.5262 6.12115 22.4933C6.41775 22.4605 6.68914 22.3111 6.87562 22.0781L9.53813 18.75H14.4562L17.1188 22.0781C17.2111 22.1935 17.3252 22.2895 17.4547 22.3608C17.5841 22.432 17.7264 22.4771 17.8732 22.4933C18.0201 22.5096 18.1687 22.4968 18.3106 22.4556C18.4525 22.4145 18.585 22.3458 18.7003 22.2534C18.8157 22.1611 18.9117 22.0469 18.983 21.9175C19.0542 21.788 19.0992 21.6458 19.1155 21.499C19.1318 21.3521 19.119 21.2035 19.0778 21.0616C19.0367 20.9196 18.968 20.7872 18.8756 20.6719L17.3438 18.75H20.25C20.7473 18.75 21.2242 18.5525 21.5758 18.2008C21.9275 17.8492 22.125 17.3723 22.125 16.875V5.625C22.125 5.12772 21.9275 4.65081 21.5758 4.29917C21.2242 3.94754 20.7473 3.75 20.25 3.75ZM19.875 16.5H4.125V6H19.875V16.5ZM9.75 11.625V13.875C9.75 14.1734 9.63147 14.4595 9.4205 14.6705C9.20952 14.8815 8.92337 15 8.625 15C8.32663 15 8.04048 14.8815 7.8295 14.6705C7.61853 14.4595 7.5 14.1734 7.5 13.875V11.625C7.5 11.3266 7.61853 11.0405 7.8295 10.8295C8.04048 10.6185 8.32663 10.5 8.625 10.5C8.92337 10.5 9.20952 10.6185 9.4205 10.8295C9.63147 11.0405 9.75 11.3266 9.75 11.625ZM12 9C12.2984 9 12.5845 9.11853 12.7955 9.3295C13.0065 9.54048 13.125 9.82663 13.125 10.125V13.875C13.125 14.1734 13.0065 14.4595 12.7955 14.6705C12.5845 14.8815 12.2984 15 12 15C11.7016 15 11.4155 14.8815 11.2045 14.6705C10.9935 14.4595 10.875 14.1734 10.875 13.875V10.125C10.875 9.82663 10.9935 9.54048 11.2045 9.3295C11.4155 9.11853 11.7016 9 12 9ZM14.25 13.875V8.625C14.25 8.32663 14.3685 8.04048 14.5795 7.8295C14.7905 7.61853 15.0766 7.5 15.375 7.5C15.6734 7.5 15.9595 7.61853 16.1705 7.8295C16.3815 8.04048 16.5 8.32663 16.5 8.625V13.875C16.5 14.1734 16.3815 14.4595 16.1705 14.6705C15.9595 14.8815 15.6734 15 15.375 15C15.0766 15 14.7905 14.8815 14.5795 14.6705C14.3685 14.4595 14.25 14.1734 14.25 13.875Z"/>
</svg>

<svg viewBox="0 0 24 24" xmlns="http://www.w3.org/2000/svg" aria-hidden="true" fill="currentColor"><path d="M20.25 3.75h-7.125V2.625a1.125 1.125 0 1 0-2.25 0V3.75H3.75a1.875 1.875 0 0 0-1.875 1.875v11.25A1.875 1.875 0 0 0 3.75 18.75h2.906L5.12 20.672a1.125 1.125 0 0 0 1.757 1.406l2.662-3.328h4.918l2.663 3.328a1.124 1.124 0 1 0 1.757-1.406l-1.532-1.922h2.906a1.875 1.875 0 0 0 1.875-1.875V5.625A1.875 1.875 0 0 0 20.25 3.75m-.375 12.75H4.125V6h15.75zM9.75 11.625v2.25a1.125 1.125 0 0 1-2.25 0v-2.25a1.125 1.125 0 0 1 2.25 0M12 9a1.125 1.125 0 0 1 1.125 1.125v3.75a1.125 1.125 0 1 1-2.25 0v-3.75A1.125 1.125 0 0 1 12 9m2.25 4.875v-5.25a1.125 1.125 0 1 1 2.25 0v5.25a1.125 1.125 0 1 1-2.25 0"/></svg>
